svg/material-icons/auto_fix_high/materialiconsround/24px.svg

<svg xmlns="http://www.w3.org/2000/svg" width="24" height="24" viewBox="0 0 24 24"><path d="m20.45 6 .49-1.06L22 4.45a.5.5 0 0 0 0-.91l-1.06-.49L20.45 2a.5.5 0 0 0-.91 0l-.49 1.06-1.05.49a.5.5 0 0 0 0 .91l1.06.49.49 1.05c.17.39.73.39.9 0zM8.95 6l.49-1.06 1.06-.49a.5.5 0 0 0 0-.91l-1.06-.48L8.95 2a.492.492 0 0 0-.9 0l-.49 1.06-1.06.49a.5.5 0 0 0 0 .91l1.06.49L8.05 6c.17.39.73.39.9 0zm10.6 7.5-.49 1.06-1.06.49a.5.5 0 0 0 0 .91l1.06.49.49 1.06a.5.5 0 0 0 .91 0l.49-1.06 1.05-.5a.5.5 0 0 0 0-.91l-1.06-.49-.49-1.06c-.17-.38-.73-.38-.9.01zm-1.84-4.38-2.83-2.83a.996.996 0 0 0-1.41 0L2.29 17.46a.996.996 0 0 0 0 1.41l2.83 2.83c.39.39 1.02.39 1.41 0L17.7 10.53c.4-.38.4-1.02.01-1.41zm-3.5 2.09L12.8 9.8l1.38-1.38 1.41 1.41-1.38 1.38z"/></svg>

<svg xmlns="http://www.w3.org/2000/svg" enable-background="new 0 0 24 24" height="24" viewBox="0 0 24 24" width="24"><g><rect fill="none" height="24" width="24" x="0"/></g><g><g><path d="M20.45,6l0.49-1.06L22,4.45c0.39-0.18,0.39-0.73,0-0.91l-1.06-0.49L20.45,2c-0.18-0.39-0.73-0.39-0.91,0l-0.49,1.06 L18,3.55c-0.39,0.18-0.39,0.73,0,0.91l1.06,0.49L19.55,6C19.72,6.39,20.28,6.39,20.45,6z"/><path d="M8.95,6l0.49-1.06l1.06-0.49c0.39-0.18,0.39-0.73,0-0.91L9.44,3.06L8.95,2C8.78,1.61,8.22,1.61,8.05,2L7.56,3.06L6.5,3.55 c-0.39,0.18-0.39,0.73,0,0.91l1.06,0.49L8.05,6C8.22,6.39,8.78,6.39,8.95,6z"/><path d="M19.55,13.5l-0.49,1.06L18,15.05c-0.39,0.18-0.39,0.73,0,0.91l1.06,0.49l0.49,1.06c0.18,0.39,0.73,0.39,0.91,0l0.49-1.06 L22,15.95c0.39-0.18,0.39-0.73,0-0.91l-1.06-0.49l-0.49-1.06C20.28,13.11,19.72,13.11,19.55,13.5z"/><path d="M17.71,9.12l-2.83-2.83c-0.39-0.39-1.02-0.39-1.41,0L2.29,17.46c-0.39,0.39-0.39,1.02,0,1.41l2.83,2.83 c0.39,0.39,1.02,0.39,1.41,0l11.17-11.17C18.1,10.15,18.1,9.51,17.71,9.12z M14.21,11.21l-1.41-1.41l1.38-1.38l1.41,1.41 L14.21,11.21z"/></g></g></svg>
